images/usdc.svg

<svg width="65" height="65" viewBox="0 0 65 65" fill="none" xmlns="http://www.w3.org/2000/svg">
<path d="M32.5 65C50.4493 65 65 50.4493 65 32.5C65 14.5507 50.4493 0 32.5 0C14.5507 0 0 14.5507 0 32.5C0 50.4493 14.5507 65 32.5 65Z" fill="#2775CA"/>
<path d="M26.5417 54.9791C26.5417 55.7916 26 56.0625 25.1875 56.0625C15.1667 52.8125 8.125 43.6041 8.125 32.7708C8.125 21.9375 15.1667 12.7291 25.1875 9.47914C26 9.20831 26.5417 9.74998 26.5417 10.5625V12.4583C26.5417 13 26.2708 13.5416 25.7292 13.8125C17.875 16.7916 12.4583 24.1041 12.4583 32.7708C12.4583 41.4375 18.1458 49.0208 25.7292 51.7291C26.2708 52 26.5417 52.5416 26.5417 53.0833V54.9791Z" fill="white"/>
<path d="M34.6668 48.2084C34.6668 48.75 34.1252 49.2917 33.5835 49.2917H31.4168C30.8752 49.2917 30.3335 48.75 30.3335 48.2084V44.9584C26.0002 44.4167 23.8335 41.9792 23.021 38.4584C23.021 37.9167 23.2918 37.375 23.8335 37.375H26.271C26.8127 37.375 27.0835 37.6459 27.3543 38.1875C27.896 40.0834 28.9793 41.7084 32.5002 41.7084C35.2085 41.7084 37.1043 40.3542 37.1043 38.1875C37.1043 36.0209 36.021 35.2084 32.2293 34.6667C26.5418 33.8542 23.8335 32.2292 23.8335 27.625C23.8335 24.1042 26.5418 21.3959 30.3335 20.8542V17.6042C30.3335 17.0625 30.8752 16.5209 31.4168 16.5209H33.5835C34.1252 16.5209 34.6668 17.0625 34.6668 17.6042V20.8542C37.9168 21.3959 40.0835 23.2917 40.6252 26.2709C40.6252 26.8125 40.3543 27.3542 39.8127 27.3542H37.646C37.1043 27.3542 36.8335 27.0834 36.5627 26.5417C36.021 24.6459 34.6668 23.8334 32.2293 23.8334C29.521 23.8334 28.1668 25.1875 28.1668 27.0834C28.1668 28.9792 28.9793 30.0625 33.0418 30.6042C38.7293 31.4167 41.4377 33.0417 41.4377 37.6459C41.4377 41.1667 38.7293 44.1459 34.6668 44.9584V48.2084Z" fill="white"/>
<path d="M39.8122 56.0625C38.9997 56.3333 38.458 55.7916 38.458 54.9791V53.0833C38.458 52.5416 38.7288 52 39.2705 51.7291C47.1247 48.75 52.5413 41.4375 52.5413 32.7708C52.5413 24.1041 46.8538 16.5208 39.2705 13.8125C38.7288 13.5416 38.458 13 38.458 12.4583V10.5625C38.458 9.74996 38.9997 9.47913 39.8122 9.47913C49.5622 12.7291 56.8747 21.9375 56.8747 32.7708C56.8747 43.6041 49.833 52.8125 39.8122 56.0625Z" fill="white"/>
</svg>

<svg width="65" height="65" fill="none" xmlns="http://www.w3.org/2000/svg"><path d="M32.5 65C50.45 65 65 50.45 65 32.5S50.45 0 32.5 0 0 14.55 0 32.5 14.55 65 32.5 65z" fill="#2775CA"/><path d="M26.542 54.98c0 .812-.542 1.083-1.355 1.083-10.02-3.25-17.062-12.459-17.062-23.292 0-10.834 7.042-20.042 17.063-23.292.812-.27 1.354.271 1.354 1.084v1.895c0 .542-.271 1.084-.813 1.354-7.854 2.98-13.27 10.292-13.27 18.959 0 8.666 5.687 16.25 13.27 18.958.542.271.813.813.813 1.354v1.896z" fill="#fff"/><path d="M34.667 48.208c0 .542-.542 1.084-1.084 1.084h-2.166c-.542 0-1.084-.542-1.084-1.084v-3.25c-4.333-.541-6.5-2.979-7.312-6.5 0-.541.27-1.083.813-1.083h2.437c.542 0 .813.27 1.083.813.542 1.895 1.625 3.52 5.146 3.52 2.709 0 4.604-1.354 4.604-3.52 0-2.167-1.083-2.98-4.875-3.521-5.687-.813-8.395-2.438-8.395-7.042 0-3.52 2.708-6.23 6.5-6.77v-3.25c0-.543.541-1.084 1.083-1.084h2.166c.542 0 1.084.541 1.084 1.083v3.25c3.25.542 5.416 2.438 5.958 5.417 0 .541-.27 1.083-.812 1.083h-2.167c-.542 0-.813-.27-1.083-.812-.542-1.896-1.896-2.709-4.334-2.709-2.708 0-4.062 1.355-4.062 3.25 0 1.896.812 2.98 4.875 3.521 5.687.813 8.396 2.438 8.396 7.042 0 3.52-2.709 6.5-6.771 7.312v3.25z" fill="#fff"/><path d="M39.812 56.063c-.812.27-1.354-.271-1.354-1.084v-1.896c0-.541.27-1.083.813-1.354 7.854-2.979 13.27-10.291 13.27-18.958 0-8.667-5.687-16.25-13.27-18.959-.542-.27-.813-.812-.813-1.354v-1.896c0-.812.542-1.083 1.354-1.083 9.75 3.25 17.063 12.459 17.063 23.292 0 10.833-7.042 20.041-17.063 23.291z" fill="#fff"/></svg>
